X: 149
T:American Hornpipe. JC.148
M:6/8
L:1/8
Q:140
S:John Clare,Poet,Helpstone (1793-1864)
R:Hornpipe
O:England
A:Northamptonshire
N:Hornpipe, it says! actually a very nice tune. CGP.
Z:vmp.P. Headford
K:Bb
d/e/|fgf dec|BAB F2E|D2F B2d|d3 c2d/e/|!
fgf dec|BAB F2D|D2F "qu"B2e|dec B2|!
|c|b2B d2B|a2B d2B|ABc c2c|ABc c2c|!
b2Bd2B|F2E d2c|F2e d2c|d2B B2|!
|z|d2f g2f|d2f g2f|g2f e2d|d2c c2B|!
d2f g2f|d2f g2f|g2f g2a|a2B B2|]
